wp-content/plugins/one-click-demo-import/assets/images/loader.svg

<svg width="32" height="32" viewBox="0 0 32 32" fill="none" xmlns="http://www.w3.org/2000/svg">
<circle cx="16" cy="16" r="16" fill="#F1F1F1"/>
<path d="M15.9999 0.00012207C7.15995 0.00012207 0 7.16007 0 16C0 24.8399 7.15995 31.9999 15.9999 31.9999C24.8398 31.9999 31.9998 24.8399 31.9998 16C31.9998 7.16007 24.8398 0.00012207 15.9999 0.00012207ZM15.9999 28.7999C8.91993 28.7999 3.19998 23.08 3.19998 16C3.19998 8.92006 8.91993 3.2001 15.9999 3.2001C23.0798 3.2001 28.7998 8.92006 28.7998 16C28.7998 23.08 23.0798 28.7999 15.9999 28.7999Z" fill="#DDDDDD"/>
<path d="M30.3203 18.96C30.2803 18.96 30.2003 18.96 30.1603 18.96C29.2803 18.88 28.6403 18.08 28.7203 17.2C28.7603 16.8 28.7603 16.4 28.7603 16C28.8003 8.96006 23.0403 3.2001 16.0004 3.2001C15.1204 3.2001 14.4004 2.4801 14.4004 1.60011C14.4004 0.720117 15.1204 0.00012207 16.0004 0.00012207C24.8403 0.00012207 32.0003 7.16007 32.0003 16C32.0003 16.52 31.9603 17 31.9203 17.52C31.8403 18.36 31.1603 18.96 30.3203 18.96Z" fill="#007CBA"/>
</svg>

<svg xmlns="http://www.w3.org/2000/svg" width="32" height="32" fill="none"><circle cx="16" cy="16" r="16" fill="#F1F1F1"/><path fill="#DDD" d="M16 0C7.16 0 0 7.16 0 16s7.16 16 16 16 16-7.16 16-16S24.84 0 16 0m0 28.8C8.92 28.8 3.2 23.08 3.2 16S8.92 3.2 16 3.2 28.8 8.92 28.8 16 23.08 28.8 16 28.8"/><path fill="#007CBA" d="M30.32 18.96h-.16c-.88-.08-1.52-.88-1.44-1.76.04-.4.04-.8.04-1.2C28.8 8.96 23.04 3.2 16 3.2c-.88 0-1.6-.72-1.6-1.6S15.12 0 16 0c8.84 0 16 7.16 16 16 0 .52-.04 1-.08 1.52-.08.84-.76 1.44-1.6 1.44"/></svg>
